X:692
T:Swinging on a Gate
M:C|
L:1/8
K:G
"G"gedB G2 AB|"Am"cABG AGEG|"G"DGBd g2 fg|"Am"eaag "D"fdef|
"G"gedB G2 AB|"Am"cABG AGEG|cABG AGEG|1 "G"DGGF G2 ef:|2 "G"DGGF G2 Bd
|:"G"gfga bagf|"Em"gfed B2 AG|"C"EGAB cBAG|"Am"EGAB "D"cdef|
"G"gfga bagf|"Em"gfed B2 AB|"C"cABG "Am"AGEG|1 "G"DGGF G2 Bd:|2 "G"DGGF G3 z|
